X: 20392
Q: "Andante"
M: C
L: 1/8
K: G
|: d2 |\
g3a g2G2 | (B>c)(d>e) d2(cB) | g3a g2(fe) | (f>g)(a>b) a2(g>a) |\
b2(a>g) g2G2 | B2d2 b3a | (g>a)gf (e>f)ge | d2B>c B2 :|


